material/.icons/material/playlist-check.svg

<svg xmlns="http://www.w3.org/2000/svg" viewBox="0 0 24 24"><path d="M14 10H2v2h12v-2m0-4H2v2h12V6M2 16h8v-2H2v2m19.5-4.5L23 13l-7 7-4.5-4.5L13 14l3 3 5.5-5.5z"/></svg>

<?xml version="1.0" encoding="UTF-8"?><!DOCTYPE svg PUBLIC "-//W3C//DTD SVG 1.1//EN" "http://www.w3.org/Graphics/SVG/1.1/DTD/svg11.dtd"><svg xmlns="http://www.w3.org/2000/svg" xmlns:xlink="http://www.w3.org/1999/xlink" version="1.1" id="mdi-playlist-check" width="24" height="24" viewBox="0 0 24 24"><path d="M14,10H2V12H14V10M14,6H2V8H14V6M2,16H10V14H2V16M21.5,11.5L23,13L16,20L11.5,15.5L13,14L16,17L21.5,11.5Z" /></svg>
